; generated by Slic3r 1.1.6 on 2014-07-28 at 17:47:40

; perimeters extrusion width = 0.35mm
; infill extrusion width = 0.46mm
; solid infill extrusion width = 0.46mm
; top infill extrusion width = 0.46mm

; perimeters extrusion width = 0.49mm
; infill extrusion width = 0.90mm
; solid infill extrusion width = 0.83mm
; top infill extrusion width = 0.83mm

G21 ; set units to millimeters
M107 ; disable fan
M104 S190 T0 ; set temperature
M104 S200 T1 ; set temperature
G28 ; home all axis
G1 Z5 F5000 ; lift nozzle
;CIRCUIT_POST_PROCESSOR: RETRACT_LENGTH = ,2,2
;CIRCUIT_POST_PROCESSOR: RETRACT_LENGTH_TOOLCHANGE = ,10,10
;CIRCUIT_POST_PROCESSOR: RETRACT_LIFT = ,0,0
;	Found 2 retract speeds: 3600, 3600
;CIRCUIT_POST_PROCESSOR: RETRACT_SPEED = ,60,60
;CIRCUIT_POST_PROCESSOR: RETRACT_RESTART_EXTRA = ,0,0
;CIRCUIT_POST_PROCESSOR: RETRACT_RESTART_EXTRA_TOOLCHANGE = ,0,0
;	FOUND START OF G CODE
;CIRCUIT_POST_PROCESSOR: BEGIN G CODE
M109 S190 T0 ; wait for temperature to be reached
G90 ; use absolute coordinates
G92 E0 ; reset extrusion distance
M82 ; use absolute distances for extrusion
T0 ; change extruder
G92 E0 ; reset extrusion distance - PrusaCircuitConverterScript
G92 E0 ; reset extrusion distance
G1 F3600.000 E-2.00000 ; retract
G92 E0 ; reset extrusion distance
; move to next layer: 0 detected. Resetting Extrusion distance.
G92 E0 ; reset extrusion distance - PrusaCircuitConverterScript
G1 Z0.220 F7800.000 ; move to next layer (0)
G1 X44.283 Y28.021 F7800.000 ; move to first skirt point
G1 E2.00000 F3600.000 ; compensate retraction
G1 X46.057 Y26.402 E2.08780 F1800.000 ; skirt
G1 X48.262 Y25.449 E2.17561 ; skirt
G1 X50.000 Y25.238 E2.23960 ; skirt
G1 X70.000 Y25.238 E2.97068 ; skirt
G1 X72.369 Y25.635 E3.05849 ; skirt
G1 X74.479 Y26.783 E3.14629 ; skirt
G1 X76.098 Y28.557 E3.23409 ; skirt
G1 X77.051 Y30.762 E3.32190 ; skirt
G1 X77.262 Y32.500 E3.38589 ; skirt
G1 X77.262 Y47.500 E3.93420 ; skirt
G1 X76.865 Y49.869 E4.02201 ; skirt
G1 X75.717 Y51.979 E4.10981 ; skirt
G1 X73.943 Y53.598 E4.19761 ; skirt
G1 X71.738 Y54.551 E4.28542 ; skirt
G1 X70.000 Y54.762 E4.34941 ; skirt
G1 X50.000 Y54.762 E5.08049 ; skirt
G1 X47.631 Y54.365 E5.16830 ; skirt
G1 X45.521 Y53.217 E5.25610 ; skirt
G1 X43.902 Y51.443 E5.34391 ; skirt
G1 X42.949 Y49.238 E5.43171 ; skirt
G1 X42.738 Y47.500 E5.49570 ; skirt
G1 X42.738 Y32.500 E6.04401 ; skirt
G1 X43.135 Y30.131 E6.13182 ; skirt
G1 X44.258 Y28.067 E6.21770 ; skirt
G1 X44.701 Y28.173 F7800.000 ; move to first skirt point
G1 X46.461 Y26.645 E6.30291 F1800.000 ; skirt
G1 X48.632 Y25.797 E6.38811 ; skirt
G1 X50.000 Y25.659 E6.43836 ; skirt
G1 X70.000 Y25.659 E7.16945 ; skirt
G1 X72.297 Y26.056 E7.25465 ; skirt
G1 X74.327 Y27.201 E7.33986 ; skirt
G1 X75.855 Y28.961 E7.42506 ; skirt
G1 X76.703 Y31.132 E7.51027 ; skirt
G1 X76.841 Y32.500 E7.56052 ; skirt
G1 X76.841 Y47.500 E8.10884 ; skirt
G1 X76.444 Y49.797 E8.19404 ; skirt
G1 X75.299 Y51.827 E8.27925 ; skirt
G1 X73.539 Y53.355 E8.36445 ; skirt
G1 X71.368 Y54.203 E8.44965 ; skirt
G1 X70.000 Y54.341 E8.49991 ; skirt
G1 X50.000 Y54.341 E9.23099 ; skirt
G1 X47.703 Y53.944 E9.31620 ; skirt
G1 X45.673 Y52.799 E9.40140 ; skirt
G1 X44.145 Y51.039 E9.48661 ; skirt
G1 X43.297 Y48.868 E9.57181 ; skirt
G1 X43.159 Y47.500 E9.62207 ; skirt
G1 X43.159 Y32.500 E10.17038 ; skirt
G1 X43.556 Y30.203 E10.25558 ; skirt
G1 X44.675 Y28.219 E10.33887 ; skirt
G1 X46.461 Y26.645 F6240.000 E3.81561 ; 3600
G1 X47.473 Y26.250 F6240.000 E0.83887 ; 3600
G1 F3600.000 E0.33887 ; retract for tool change
G92 E0 ; reset extrusion distance
T1 ; change extruder
G92 E0 ; reset extrusion distance - PrusaCircuitConverterScript


END FDM G CODE
M400
M42 P6 S0
G91
G1 Z5 F6000
G90
SEPARATE HERE

G1 Z0.220; restore Z Travel Height before continuing print
; G92 - no reset extruder distance
;commented retraction: G1 F3600.000   ; retract
; G92 - no reset extruder distance
G1 X-0.832 Y27.330 F7800.000 ; move to first skirt point
M400
M42 P6 S255 ; Pressure on
G4 P1 ; dwell after retraction compensation
;G1 E2.00000 F3600.000 ; compensate retraction
G1 X0.913 Y25.898   F1800.000 ; skirt
G1 X4.050 Y25.079   ; skirt
G1 X24.050 Y25.079   ; skirt
G1 X26.272 Y25.476   ; skirt
G1 X28.220 Y26.618   ; skirt
G1 X29.652 Y28.363   ; skirt
G1 X30.471 Y31.500   ; skirt
G1 X30.471 Y46.500   ; skirt
G1 X30.074 Y48.722   ; skirt
G1 X28.932 Y50.670   ; skirt
G1 X27.187 Y52.102   ; skirt
G1 X24.050 Y52.921   ; skirt
G1 X4.050 Y52.921   ; skirt
G1 X1.828 Y52.524   ; skirt
G1 X-0.120 Y51.382   ; skirt
G1 X-1.552 Y49.637   ; skirt
G1 X-2.371 Y46.500   ; skirt
G1 X-2.371 Y31.500   ; skirt
G1 X-1.974 Y29.278   ; skirt
G1 X-0.869 Y27.393   ; skirt
G4 P1 ; dwell before retracting
M400
M42 P6 S0 ; Pressure off
;commented retraction: G1 F3600.000   ; retract for tool change
; G92 - no reset extruder distance
T0 ; change extruder
G92 E0 ; reset extrusion distance - PrusaCircuitConverterScript
G92 E0 ; reset extrusion distance
;G1 X62.141 Y41.141 F7800.000 ; move to first perimeter point
G1 X62.141 Y41.141 F7800.000 ; move to first 	; move to first (last) fill point
G1 E10.00000 F3600.000 ; compensate retraction
G1 X57.859 Y41.141 E10.15650 F900.000 ; perimeter
G1 X57.859 Y38.859 E10.23990 ; perimeter
G1 X62.141 Y38.859 E10.39640 ; perimeter
G1 X62.141 Y41.088 E10.47787 ; perimeter
;G1 X61.720 Y40.720 F7800.000 ; move to first perimeter point
G1 X61.720 Y40.720 F7800.000 ; move to first 	; move to first (last) fill point
G1 X58.280 Y40.720 E10.60362 F630.000 ; perimeter
G1 X58.280 Y39.280 E10.65626 ; perimeter
G1 X61.720 Y39.280 E10.78200 ; perimeter
G1 X61.720 Y40.668 E10.83272 ; perimeter
G1 X61.720 Y41.070 F7800.000 ; move inwards before travel
;G1 X69.359 Y46.859 F7800.000 ; move to first perimeter point
G1 X69.359 Y46.859 F7800.000 ; move to first 	; move to first (last) fill point
G1 X50.641 Y46.859 E11.51697 F900.000 ; perimeter
G1 X50.641 Y33.141 E12.01844 ; perimeter
G1 X69.359 Y33.141 E12.70269 ; perimeter
G1 X69.359 Y46.807 E13.20225 ; perimeter
;G1 X69.780 Y47.280 F7800.000 ; move to first perimeter point
G1 X69.780 Y47.280 F7800.000 ; move to first 	; move to first (last) fill point
G1 X50.220 Y47.280 E13.91725 F630.000 ; perimeter
G1 X50.220 Y32.720 E14.44948 ; perimeter
G1 X69.780 Y32.720 E15.16448 ; perimeter
G1 X69.780 Y47.228 E15.69479 ; perimeter
G1 X69.477 Y47.105 F7800.000 ; move inwards before travel
;G1 X61.576 Y38.574 F7800.000 ; move to first fill point
G1 X61.576 Y38.574 F7800.000 	; move to first (last) fill point
G1 X56.427 Y33.426 E15.96095 F1800.000 ; fill
G1 X55.827 Y33.426 E15.98290 ; fill
G1 X60.976 Y38.574 E16.24906 ; fill
G1 X60.375 Y38.574 E16.27101 ; fill
G1 X55.227 Y33.426 E16.53717 ; fill
G1 X54.626 Y33.426 E16.55912 ; fill
G1 X59.775 Y38.574 E16.82528 ; fill
G1 X59.175 Y38.574 E16.84722 ; fill
G1 X54.026 Y33.426 E17.11339 ; fill
G1 X53.426 Y33.426 E17.13533 ; fill
G1 X58.574 Y38.574 E17.40150 ; fill
G1 X57.974 Y38.574 E17.42344 ; fill
G1 X52.825 Y33.426 E17.68961 ; fill
G1 X52.225 Y33.426 E17.71155 ; fill
G1 X57.574 Y38.775 E17.98809 ; fill
G1 X57.574 Y39.375 E18.01003 ; fill
G1 X51.625 Y33.426 E18.31760 ; fill
G1 X51.024 Y33.426 E18.33955 ; fill
G1 X57.574 Y39.976 E18.67816 ; fill
G1 X57.574 Y40.576 E18.70010 ; fill
G1 X50.926 Y33.927 E19.04381 ; fill
G1 X50.926 Y34.528 E19.06575 ; fill
G1 X57.574 Y41.176 E19.40946 ; fill
;G1 X50.966 Y46.574 F7800.000 ; move to first fill point
G1 X50.966 Y46.574 F7800.000 	; move to first (last) fill point
G1 X50.926 Y46.534 E19.41153 F1800.000 ; fill
G1 X50.926 Y45.934 E19.43347 ; fill
G1 X51.566 Y46.574 E19.46657 ; fill
G1 X52.166 Y46.574 E19.48852 ; fill
G1 X50.926 Y45.334 E19.55266 ; fill
G1 X50.926 Y44.733 E19.57460 ; fill
G1 X52.767 Y46.574 E19.66977 ; fill
G1 X53.367 Y46.574 E19.69172 ; fill
G1 X50.926 Y44.133 E19.81792 ; fill
G1 X50.926 Y43.533 E19.83987 ; fill
G1 X53.967 Y46.574 E19.99711 ; fill
G1 X54.568 Y46.574 E20.01905 ; fill
G1 X50.926 Y42.932 E20.20733 ; fill
G1 X50.926 Y42.332 E20.22927 ; fill
G1 X55.168 Y46.574 E20.44858 ; fill
G1 X55.768 Y46.574 E20.47053 ; fill
G1 X50.926 Y41.732 E20.72087 ; fill
G1 X50.926 Y41.131 E20.74282 ; fill
G1 X56.369 Y46.574 E21.02420 ; fill
G1 X56.969 Y46.574 E21.04614 ; fill
G1 X50.926 Y40.531 E21.35855 ; fill
G1 X50.926 Y39.931 E21.38050 ; fill
G1 X57.569 Y46.574 E21.72395 ; fill
G1 X58.170 Y46.574 E21.74589 ; fill
G1 X50.926 Y39.330 E22.12038 ; fill
G1 X50.926 Y38.730 E22.14232 ; fill
G1 X58.770 Y46.574 E22.54784 ; fill
G1 X59.370 Y46.574 E22.56978 ; fill
G1 X50.926 Y38.130 E23.00633 ; fill
G1 X50.926 Y37.529 E23.02828 ; fill
G1 X59.971 Y46.574 E23.49587 ; fill
G1 X60.571 Y46.574 E23.51781 ; fill
G1 X50.926 Y36.929 E24.01643 ; fill
G1 X50.926 Y36.329 E24.03838 ; fill
G1 X61.171 Y46.574 E24.56803 ; fill
G1 X61.772 Y46.574 E24.58998 ; fill
G1 X50.926 Y35.728 E25.15067 ; fill
G1 X50.926 Y35.128 E25.17261 ; fill
G1 X62.372 Y46.574 E25.76434 ; fill
G1 X62.972 Y46.574 E25.78628 ; fill
G1 X57.824 Y41.426 E26.05245 ; fill
G1 X58.424 Y41.426 E26.07439 ; fill
G1 X63.573 Y46.574 E26.34055 ; fill
G1 X64.173 Y46.574 E26.36250 ; fill
G1 X59.024 Y41.426 E26.62866 ; fill
G1 X59.625 Y41.426 E26.65061 ; fill
G1 X64.773 Y46.574 E26.91677 ; fill
G1 X65.374 Y46.574 E26.93872 ; fill
G1 X60.225 Y41.426 E27.20488 ; fill
G1 X60.825 Y41.426 E27.22682 ; fill
G1 X65.974 Y46.574 E27.49299 ; fill
G1 X66.574 Y46.574 E27.51493 ; fill
G1 X61.426 Y41.426 E27.78110 ; fill
G1 X62.026 Y41.426 E27.80304 ; fill
G1 X67.175 Y46.574 E28.06920 ; fill
G1 X67.775 Y46.574 E28.09115 ; fill
G1 X62.426 Y41.225 E28.36769 ; fill
G1 X62.426 Y40.625 E28.38963 ; fill
G1 X68.375 Y46.574 E28.69720 ; fill
G1 X68.976 Y46.574 E28.71915 ; fill
G1 X62.426 Y40.024 E29.05775 ; fill
G1 X62.426 Y39.424 E29.07970 ; fill
G1 X69.074 Y46.073 E29.42341 ; fill
G1 X69.074 Y45.472 E29.44535 ; fill
G1 X57.028 Y33.426 E30.06811 ; fill
G1 X57.628 Y33.426 E30.09006 ; fill
G1 X69.074 Y44.872 E30.68178 ; fill
G1 X69.074 Y44.272 E30.70373 ; fill
G1 X58.228 Y33.426 E31.26442 ; fill
G1 X58.829 Y33.426 E31.28636 ; fill
G1 X69.074 Y43.671 E31.81602 ; fill
G1 X69.074 Y43.071 E31.83796 ; fill
G1 X59.429 Y33.426 E32.33658 ; fill
G1 X60.029 Y33.426 E32.35853 ; fill
G1 X69.074 Y42.471 E32.82611 ; fill
G1 X69.074 Y41.870 E32.84806 ; fill
G1 X60.630 Y33.426 E33.28461 ; fill
G1 X61.230 Y33.426 E33.30655 ; fill
G1 X69.074 Y41.270 E33.71207 ; fill
G1 X69.074 Y40.670 E33.73402 ; fill
G1 X61.830 Y33.426 E34.10850 ; fill
G1 X62.431 Y33.426 E34.13044 ; fill
G1 X69.074 Y40.069 E34.47389 ; fill
G1 X69.074 Y39.469 E34.49584 ; fill
G1 X63.031 Y33.426 E34.80825 ; fill
G1 X63.631 Y33.426 E34.83020 ; fill
G1 X69.074 Y38.869 E35.11158 ; fill
G1 X69.074 Y38.268 E35.13352 ; fill
G1 X64.232 Y33.426 E35.38386 ; fill
G1 X64.832 Y33.426 E35.40581 ; fill
G1 X69.074 Y37.668 E35.62512 ; fill
G1 X69.074 Y37.068 E35.64706 ; fill
G1 X65.432 Y33.426 E35.83534 ; fill
G1 X66.033 Y33.426 E35.85728 ; fill
G1 X69.074 Y36.467 E36.01453 ; fill
G1 X69.074 Y35.867 E36.03647 ; fill
G1 X66.633 Y33.426 E36.16268 ; fill
G1 X67.233 Y33.426 E36.18462 ; fill
G1 X69.074 Y35.267 E36.27979 ; fill
G1 X69.074 Y34.666 E36.30174 ; fill
G1 X67.834 Y33.426 E36.36587 ; fill
G1 X68.434 Y33.426 E36.38782 ; fill
G1 X69.074 Y34.066 E36.42092 ; fill
G1 X69.074 Y33.466 E36.44287 ; fill
G1 X69.034 Y33.426 E36.44493 ; fill
G1 X69.074 Y33.466 F6240.000 E36.28991 ; 3600
G1 X69.074 Y34.066 F6240.000 E34.64476 ; 3600
G1 X68.434 Y33.426 F6240.000 E32.16316 ; 3600
G1 X67.834 Y33.426 F6240.000 E30.51801 ; 3600
G1 X68.756 Y34.348 F6240.000 E26.94493 ; 3600
G1 F3600.000 E26.44493 ; retract for tool change
G92 E0 ; reset extrusion distance
T1 ; change extruder
G92 E0 ; reset extrusion distance - PrusaCircuitConverterScript


END FDM G CODE
M400
M42 P6 S0
G91
G1 Z5 F6000
G90
SEPARATE HERE

G1 Z0.220; restore Z Travel Height before continuing print
; G92 - no reset extruder distance
;G1 X15.330 Y39.280 F7800.000 ; move to first perimeter point
G1 X15.330 Y39.280 F7800.000 ; move to first 	; move to first (last) fill point
M400
M42 P6 S255 ; Pressure on
G4 P1 ; dwell after retraction compensation
;G1 E10.00000 F3600.000 ; compensate retraction
G1 X12.770 Y39.280    F3600  ; perimeter; replaced feedrate - PrusaCircuitConverterScript
G1 X12.770 Y38.720   ; perimeter
G1 X15.330 Y38.720   ; perimeter
G1 X15.330 Y39.207   ; perimeter
G1 X14.906 Y39.035 F7800.000 ; move inwards before travel
M106 S255 ; enable fan
G4 P1 ; dwell before retracting
M400
M42 P6 S0 ; Pressure off
;commented retraction: G1 F3600.000   ; retract
; G92 - no reset extruder distance
; move to next layer: 1 detected. Resetting Extrusion distance.
G92 E0 ; reset extrusion distance - PrusaCircuitConverterScript
G1 Z0.440 F7800.000 ; move to next layer (1)
;commented retraction: G1 F3600.000   ; retract for tool change
; G92 - no reset extruder distance
T0 ; change extruder
G92 E0 ; reset extrusion distance - PrusaCircuitConverterScript
G92 E0 ; reset extrusion distance
;G1 X62.025 Y41.025 F7800.000 ; move to first perimeter point
G1 X62.025 Y41.025 F7800.000 ; move to first 	; move to first (last) fill point
G1 E10.00000 F3600.000 ; compensate retraction
G1 X57.975 Y41.025 E10.12317 F968.507 ; perimeter
G1 X57.975 Y38.975 E10.18551 ; perimeter
G1 X62.025 Y38.975 E10.30868 ; perimeter
G1 X62.025 Y40.972 E10.36943 ; perimeter
;G1 X61.675 Y40.675 F7800.000 ; move to first perimeter point
G1 X61.675 Y40.675 F7800.000 ; move to first 	; move to first (last) fill point
G1 X58.325 Y40.675 E10.47131 F677.955 ; perimeter
G1 X58.325 Y39.325 E10.51237 ; perimeter
G1 X61.675 Y39.325 E10.61425 ; perimeter
G1 X61.675 Y40.623 E10.65371 ; perimeter
G1 X61.675 Y41.025 F7800.000 ; move inwards before travel
;G1 X69.475 Y46.975 F7800.000 ; move to first perimeter point
G1 X69.475 Y46.975 F7800.000 ; move to first 	; move to first (last) fill point
G1 X50.525 Y46.975 E11.23002 F968.507 ; perimeter
G1 X50.525 Y33.025 E11.65427 ; perimeter
G1 X69.475 Y33.025 E12.23059 ; perimeter
G1 X69.475 Y46.923 E12.65324 ; perimeter
;G1 X69.825 Y47.325 F7800.000 ; move to first perimeter point
G1 X69.825 Y47.325 F7800.000 ; move to first 	; move to first (last) fill point
G1 X50.175 Y47.325 E13.25084 F677.955 ; perimeter
G1 X50.175 Y32.675 E13.69638 ; perimeter
G1 X69.825 Y32.675 E14.29398 ; perimeter
G1 X69.825 Y47.273 E14.73792 ; perimeter
G1 X69.522 Y47.150 F7800.000 ; move inwards before travel
;G1 X69.222 Y46.682 F7800.000 ; move to first fill point
G1 X69.222 Y46.682 F7800.000 	; move to first (last) fill point
G1 X69.182 Y46.722 E14.74007 F1937.015 ; fill
G1 X68.558 Y46.722 E14.76377 ; fill
G1 X69.222 Y46.058 E14.79944 ; fill
G1 X69.222 Y45.434 E14.82313 ; fill
G1 X67.934 Y46.722 E14.89232 ; fill
G1 X67.311 Y46.722 E14.91601 ; fill
G1 X69.222 Y44.811 E15.01871 ; fill
G1 X69.222 Y44.187 E15.04241 ; fill
G1 X66.687 Y46.722 E15.17862 ; fill
G1 X66.063 Y46.722 E15.20232 ; fill
G1 X69.222 Y43.563 E15.37205 ; fill
G1 X69.222 Y42.940 E15.39574 ; fill
G1 X65.440 Y46.722 E15.59899 ; fill
G1 X64.816 Y46.722 E15.62269 ; fill
G1 X69.222 Y42.316 E15.85944 ; fill
G1 X69.222 Y41.692 E15.88314 ; fill
G1 X64.192 Y46.722 E16.15341 ; fill
G1 X63.569 Y46.722 E16.17711 ; fill
G1 X69.222 Y41.069 E16.48090 ; fill
G1 X69.222 Y40.445 E16.50460 ; fill
G1 X62.945 Y46.722 E16.84190 ; fill
G1 X62.321 Y46.722 E16.86560 ; fill
G1 X69.222 Y39.821 E17.23642 ; fill
G1 X69.222 Y39.198 E17.26012 ; fill
G1 X61.698 Y46.722 E17.66446 ; fill
G1 X61.074 Y46.722 E17.68815 ; fill
G1 X69.222 Y38.574 E18.12600 ; fill
G1 X69.222 Y37.950 E18.14970 ; fill
G1 X60.450 Y46.722 E18.62107 ; fill
G1 X59.827 Y46.722 E18.64477 ; fill
G1 X69.222 Y37.327 E19.14965 ; fill
G1 X69.222 Y36.703 E19.17335 ; fill
G1 X59.203 Y46.722 E19.71174 ; fill
G1 X58.579 Y46.722 E19.73544 ; fill
G1 X69.222 Y36.079 E20.30735 ; fill
G1 X69.222 Y35.456 E20.33105 ; fill
G1 X57.956 Y46.722 E20.93648 ; fill
G1 X57.332 Y46.722 E20.96018 ; fill
G1 X69.222 Y34.832 E21.59912 ; fill
G1 X69.222 Y34.208 E21.62282 ; fill
G1 X56.708 Y46.722 E22.29528 ; fill
G1 X56.085 Y46.722 E22.31897 ; fill
G1 X61.528 Y41.278 E22.61150 ; fill
G1 X60.904 Y41.278 E22.63519 ; fill
