; generated by Slic3r 1.1.6 on 2014-07-28 at 17:43:25

; perimeters extrusion width = 0.35mm
; infill extrusion width = 0.72mm
; solid infill extrusion width = 0.59mm
; top infill extrusion width = 0.59mm

; perimeters extrusion width = 0.49mm
; infill extrusion width = 1.38mm
; solid infill extrusion width = 0.83mm
; top infill extrusion width = 0.83mm

G21 ; set units to millimeters
M107 ; disable fan
M104 S190 T0 ; set temperature
M104 S200 T1 ; set temperature
G28 ; home all axis
G1 Z5 F5000 ; lift nozzle
;CIRCUIT_POST_PROCESSOR: RETRACT_LENGTH = ,2,2
;CIRCUIT_POST_PROCESSOR: RETRACT_LENGTH_TOOLCHANGE = ,10,10
;CIRCUIT_POST_PROCESSOR: RETRACT_LIFT = ,0,0
;	Found 2 retract speeds: 3600, 3600
;CIRCUIT_POST_PROCESSOR: RETRACT_SPEED = ,60,60
;CIRCUIT_POST_PROCESSOR: RETRACT_RESTART_EXTRA = ,0,0
;CIRCUIT_POST_PROCESSOR: RETRACT_RESTART_EXTRA_TOOLCHANGE = ,0,0
;	FOUND START OF G CODE
;CIRCUIT_POST_PROCESSOR: BEGIN G CODE
M109 S190 T0 ; wait for temperature to be reached
G90 ; use absolute coordinates
G92 E0 ; reset extrusion distance
M82 ; use absolute distances for extrusion
T0 ; change extruder
G92 E0 ; reset extrusion distance - PrusaCircuitConverterScript
G92 E0 ; reset extrusion distance
G1 F3600.000 E-2.00000 ; retract
G92 E0 ; reset extrusion distance
; move to next layer: 0 detected. Resetting Extrusion distance.
G92 E0 ; reset extrusion distance - PrusaCircuitConverterScript
G1 Z0.140 F7800.000 ; move to next layer (0)
G1 X44.658 Y28.157 F7800.000 ; move to first skirt point
G1 E2.00000 F3600.000 ; compensate retraction
G1 X46.419 Y26.619 E2.03815 F1800.000 ; skirt
G1 X48.594 Y25.760 E2.07629 ; skirt
G1 X50.000 Y25.615 E2.09935 ; skirt
G1 X70.000 Y25.615 E2.42562 ; skirt
G1 X72.304 Y26.012 E2.46376 ; skirt
G1 X74.343 Y27.158 E2.50191 ; skirt
G1 X75.881 Y28.919 E2.54006 ; skirt
G1 X76.740 Y31.094 E2.57820 ; skirt
G1 X76.885 Y32.500 E2.60126 ; skirt
G1 X76.885 Y47.500 E2.84596 ; skirt
G1 X76.488 Y49.804 E2.88411 ; skirt
G1 X75.342 Y51.843 E2.92225 ; skirt
G1 X73.581 Y53.381 E2.96040 ; skirt
G1 X71.406 Y54.240 E2.99855 ; skirt
G1 X70.000 Y54.385 E3.02160 ; skirt
G1 X50.000 Y54.385 E3.34787 ; skirt
G1 X47.696 Y53.988 E3.38602 ; skirt
G1 X45.657 Y52.842 E3.42416 ; skirt
G1 X44.119 Y51.081 E3.46231 ; skirt
G1 X43.260 Y48.906 E3.50046 ; skirt
G1 X43.115 Y47.500 E3.52351 ; skirt
G1 X43.115 Y32.500 E3.76821 ; skirt
G1 X43.512 Y30.196 E3.80636 ; skirt
G1 X44.632 Y28.203 E3.84365 ; skirt
G1 X44.950 Y28.266 F7800.000 ; move to first skirt point
G1 X46.701 Y26.795 E3.88096 F1800.000 ; skirt
G1 X48.850 Y26.011 E3.91828 ; skirt
G1 X50.000 Y25.910 E3.93710 ; skirt
G1 X70.000 Y25.910 E4.26337 ; skirt
G1 X72.253 Y26.307 E4.30068 ; skirt
G1 X74.234 Y27.450 E4.33800 ; skirt
G1 X75.705 Y29.201 E4.37531 ; skirt
G1 X76.489 Y31.350 E4.41263 ; skirt
G1 X76.590 Y32.500 E4.43145 ; skirt
G1 X76.590 Y47.500 E4.67615 ; skirt
G1 X76.193 Y49.753 E4.71347 ; skirt
G1 X75.050 Y51.734 E4.75078 ; skirt
G1 X73.299 Y53.205 E4.78810 ; skirt
G1 X71.150 Y53.989 E4.82541 ; skirt
G1 X70.000 Y54.090 E4.84424 ; skirt
G1 X50.000 Y54.090 E5.17050 ; skirt
G1 X47.747 Y53.693 E5.20782 ; skirt
G1 X45.766 Y52.550 E5.24513 ; skirt
G1 X44.295 Y50.799 E5.28245 ; skirt
G1 X43.511 Y48.650 E5.31976 ; skirt
G1 X43.410 Y47.500 E5.33859 ; skirt
G1 X43.410 Y32.500 E5.58329 ; skirt
G1 X43.807 Y30.247 E5.62060 ; skirt
G1 X44.924 Y28.312 E5.65706 ; skirt
G1 X46.701 Y26.795 F6240.000 E-0.74659 ; 3600
G1 X47.763 Y26.408 F6240.000 E-3.84294 ; 3600
G1 F3600.000 E-4.34294 ; retract for tool change
G92 E0 ; reset extrusion distance
T1 ; change extruder
G92 E0 ; reset extrusion distance - PrusaCircuitConverterScript


END FDM G CODE
M400
M42 P6 S0
G91
G1 Z5 F6000
G90
SEPARATE HERE

G1 Z0.140; restore Z Travel Height before continuing print
; G92 - no reset extruder distance
;commented retraction: G1 F3600.000   ; retract
; G92 - no reset extruder distance
G1 X-0.708 Y27.378 F7800.000 ; move to first skirt point
M400
M42 P6 S255 ; Pressure on
G4 P1 ; dwell after retraction compensation
;G1 E2.00000 F3600.000 ; compensate retraction
G1 X1.033 Y25.975   F1800.000 ; skirt
G1 X4.050 Y25.205   ; skirt
G1 X24.050 Y25.205   ; skirt
G1 X26.250 Y25.602   ; skirt
G1 X28.172 Y26.742   ; skirt
G1 X29.575 Y28.483   ; skirt
G1 X30.345 Y31.500   ; skirt
G1 X30.345 Y46.500   ; skirt
G1 X29.948 Y48.700   ; skirt
G1 X28.808 Y50.622   ; skirt
G1 X27.067 Y52.025   ; skirt
G1 X24.050 Y52.795   ; skirt
G1 X4.050 Y52.795   ; skirt
G1 X1.850 Y52.398   ; skirt
G1 X-0.072 Y51.258   ; skirt
G1 X-1.475 Y49.517   ; skirt
G1 X-2.245 Y46.500   ; skirt
G1 X-2.245 Y31.500   ; skirt
G1 X-1.848 Y29.300   ; skirt
G1 X-0.745 Y27.441   ; skirt
G4 P1 ; dwell before retracting
M400
M42 P6 S0 ; Pressure off
;commented retraction: G1 F3600.000   ; retract for tool change
; G92 - no reset extruder distance
T0 ; change extruder
G92 E0 ; reset extrusion distance - PrusaCircuitConverterScript
G92 E0 ; reset extrusion distance
;G1 X61.935 Y40.935 F7800.000 ; move to first perimeter point
G1 X61.935 Y40.935 F7800.000 ; move to first 	; move to first (last) fill point
G1 E10.00000 F3600.000 ; compensate retraction
G1 X58.065 Y40.935 E10.06313 F900.000 ; perimeter
G1 X58.065 Y39.065 E10.09364 ; perimeter
G1 X61.935 Y39.065 E10.15677 ; perimeter
G1 X61.935 Y40.883 E10.18642 ; perimeter
;G1 X61.640 Y40.640 F7800.000 ; move to first perimeter point
G1 X61.640 Y40.640 F7800.000 ; move to first 	; move to first (last) fill point
G1 X58.360 Y40.640 E10.23993 F630.000 ; perimeter
G1 X58.360 Y39.360 E10.26081 ; perimeter
G1 X61.640 Y39.360 E10.31432 ; perimeter
G1 X61.640 Y40.588 E10.33434 ; perimeter
G1 X61.640 Y40.990 F7800.000 ; move inwards before travel
;G1 X69.565 Y47.065 F7800.000 ; move to first perimeter point
G1 X69.565 Y47.065 F7800.000 ; move to first 	; move to first (last) fill point
G1 X50.435 Y47.065 E10.64641 F900.000 ; perimeter
G1 X50.435 Y32.935 E10.87692 ; perimeter
G1 X69.565 Y32.935 E11.18899 ; perimeter
G1 X69.565 Y47.012 E11.41864 ; perimeter
;G1 X69.860 Y47.360 F7800.000 ; move to first perimeter point
G1 X69.860 Y47.360 F7800.000 ; move to first 	; move to first (last) fill point
G1 X50.140 Y47.360 E11.74034 F630.000 ; perimeter
G1 X50.140 Y32.640 E11.98047 ; perimeter
G1 X69.860 Y32.640 E12.30217 ; perimeter
G1 X69.860 Y47.308 E12.54144 ; perimeter
G1 X69.557 Y47.185 F7800.000 ; move inwards before travel
;G1 X69.371 Y46.636 F7800.000 ; move to first fill point
G1 X69.371 Y46.636 F7800.000 	; move to first (last) fill point
G1 X62.129 Y39.393 E12.70852 F1800.000 ; fill
G1 X62.129 Y39.814 E12.71539 ; fill
G1 X69.186 Y46.871 E12.87819 ; fill
G1 X68.765 Y46.871 E12.88505 ; fill
G1 X62.129 Y40.235 E13.03815 ; fill
G1 X62.129 Y40.656 E13.04501 ; fill
G1 X68.344 Y46.871 E13.18840 ; fill
G1 X67.923 Y46.871 E13.19527 ; fill
G1 X62.129 Y41.077 E13.32894 ; fill
G1 X61.760 Y41.129 E13.33502 ; fill
G1 X67.502 Y46.871 E13.46749 ; fill
G1 X67.082 Y46.871 E13.47436 ; fill
G1 X61.339 Y41.129 E13.60683 ; fill
G1 X60.918 Y41.129 E13.61370 ; fill
G1 X66.661 Y46.871 E13.74617 ; fill
G1 X66.240 Y46.871 E13.75304 ; fill
G1 X60.498 Y41.129 E13.88551 ; fill
G1 X60.077 Y41.129 E13.89238 ; fill
G1 X65.819 Y46.871 E14.02485 ; fill
G1 X65.398 Y46.871 E14.03172 ; fill
G1 X59.656 Y41.129 E14.16420 ; fill
G1 X59.235 Y41.129 E14.17106 ; fill
G1 X64.977 Y46.871 E14.30354 ; fill
G1 X64.557 Y46.871 E14.31040 ; fill
G1 X58.814 Y41.129 E14.44288 ; fill
G1 X58.393 Y41.129 E14.44974 ; fill
G1 X64.136 Y46.871 E14.58222 ; fill
G1 X63.715 Y46.871 E14.58908 ; fill
G1 X50.629 Y33.785 E14.89098 ; fill
G1 X50.629 Y33.364 E14.89784 ; fill
G1 X57.871 Y40.607 E15.06493 ; fill
G1 X57.871 Y40.186 E15.07179 ; fill
G1 X50.814 Y33.129 E15.23459 ; fill
G1 X51.235 Y33.129 E15.24146 ; fill
G1 X57.871 Y39.765 E15.39455 ; fill
G1 X57.871 Y39.344 E15.40142 ; fill
G1 X51.656 Y33.129 E15.54481 ; fill
G1 X52.077 Y33.129 E15.55167 ; fill
G1 X57.871 Y38.923 E15.68535 ; fill
G1 X58.240 Y38.871 E15.69142 ; fill
G1 X52.498 Y33.129 E15.82390 ; fill
G1 X52.918 Y33.129 E15.83076 ; fill
G1 X58.661 Y38.871 E15.96324 ; fill
G1 X59.082 Y38.871 E15.97010 ; fill
G1 X53.339 Y33.129 E16.10258 ; fill
G1 X53.760 Y33.129 E16.10944 ; fill
G1 X59.502 Y38.871 E16.24192 ; fill
G1 X59.923 Y38.871 E16.24878 ; fill
G1 X54.181 Y33.129 E16.38126 ; fill
G1 X54.602 Y33.129 E16.38812 ; fill
G1 X60.344 Y38.871 E16.52060 ; fill
G1 X60.765 Y38.871 E16.52747 ; fill
G1 X55.023 Y33.129 E16.65994 ; fill
G1 X55.443 Y33.129 E16.66681 ; fill
G1 X61.186 Y38.871 E16.79928 ; fill
G1 X61.607 Y38.871 E16.80615 ; fill
G1 X55.864 Y33.129 E16.93862 ; fill
G1 X56.285 Y33.129 E16.94549 ; fill
G1 X69.371 Y46.215 E17.24738 ; fill
G1 X69.371 Y45.794 E17.25425 ; fill
G1 X56.706 Y33.129 E17.54644 ; fill
G1 X57.127 Y33.129 E17.55330 ; fill
G1 X69.371 Y45.373 E17.83578 ; fill
G1 X69.371 Y44.952 E17.84265 ; fill
G1 X57.548 Y33.129 E18.11542 ; fill
G1 X57.969 Y33.129 E18.12229 ; fill
G1 X69.371 Y44.531 E18.38535 ; fill
G1 X69.371 Y44.111 E18.39221 ; fill
G1 X58.389 Y33.129 E18.64557 ; fill
G1 X58.810 Y33.129 E18.65243 ; fill
G1 X69.371 Y43.690 E18.89608 ; fill
G1 X69.371 Y43.269 E18.90294 ; fill
G1 X59.231 Y33.129 E19.13688 ; fill
G1 X59.652 Y33.129 E19.14374 ; fill
G1 X69.371 Y42.848 E19.36797 ; fill
G1 X69.371 Y42.427 E19.37483 ; fill
G1 X60.073 Y33.129 E19.58935 ; fill
G1 X60.494 Y33.129 E19.59622 ; fill
G1 X69.371 Y42.006 E19.80103 ; fill
G1 X69.371 Y41.586 E19.80789 ; fill
G1 X60.914 Y33.129 E20.00299 ; fill
G1 X61.335 Y33.129 E20.00986 ; fill
G1 X69.371 Y41.165 E20.19525 ; fill
G1 X69.371 Y40.744 E20.20211 ; fill
G1 X61.756 Y33.129 E20.37780 ; fill
G1 X62.177 Y33.129 E20.38466 ; fill
G1 X69.371 Y40.323 E20.55064 ; fill
G1 X69.371 Y39.902 E20.55750 ; fill
G1 X62.598 Y33.129 E20.71377 ; fill
G1 X63.019 Y33.129 E20.72063 ; fill
G1 X69.371 Y39.481 E20.86719 ; fill
G1 X69.371 Y39.061 E20.87405 ; fill
G1 X63.439 Y33.129 E21.01090 ; fill
G1 X63.860 Y33.129 E21.01777 ; fill
G1 X69.371 Y38.640 E21.14490 ; fill
G1 X69.371 Y38.219 E21.15177 ; fill
G1 X64.281 Y33.129 E21.26920 ; fill
G1 X64.702 Y33.129 E21.27606 ; fill
G1 X69.371 Y37.798 E21.38378 ; fill
G1 X69.371 Y37.377 E21.39065 ; fill
G1 X65.123 Y33.129 E21.48866 ; fill
G1 X65.544 Y33.129 E21.49553 ; fill
G1 X69.371 Y36.956 E21.58383 ; fill
G1 X69.371 Y36.536 E21.59069 ; fill
G1 X65.964 Y33.129 E21.66929 ; fill
G1 X66.385 Y33.129 E21.67615 ; fill
G1 X69.371 Y36.115 E21.74504 ; fill
G1 X69.371 Y35.694 E21.75190 ; fill
G1 X66.806 Y33.129 E21.81108 ; fill
G1 X67.227 Y33.129 E21.81794 ; fill
G1 X69.371 Y35.273 E21.86741 ; fill
G1 X69.371 Y34.852 E21.87428 ; fill
G1 X67.648 Y33.129 E21.91403 ; fill
G1 X68.069 Y33.129 E21.92090 ; fill
G1 X69.371 Y34.431 E21.95095 ; fill
G1 X69.371 Y34.011 E21.95781 ; fill
G1 X68.489 Y33.129 E21.97815 ; fill
G1 X68.910 Y33.129 E21.98502 ; fill
G1 X69.371 Y33.590 E21.99565 ; fill
G1 X69.371 Y33.169 E22.00252 ; fill
G1 X69.331 Y33.129 E22.00344 ; fill
;G1 X63.294 Y46.871 F7800.000 ; move to first fill point
G1 X63.294 Y46.871 F7800.000 	; move to first (last) fill point
G1 X50.629 Y34.206 E22.29563 F1800.000 ; fill
G1 X50.629 Y34.627 E22.30249 ; fill
G1 X62.873 Y46.871 E22.58497 ; fill
G1 X62.452 Y46.871 E22.59184 ; fill
G1 X50.629 Y35.048 E22.86461 ; fill
G1 X50.629 Y35.469 E22.87148 ; fill
G1 X62.031 Y46.871 E23.13454 ; fill
G1 X61.611 Y46.871 E23.14140 ; fill
G1 X50.629 Y35.889 E23.39476 ; fill
G1 X50.629 Y36.310 E23.40162 ; fill
G1 X61.190 Y46.871 E23.64527 ; fill
G1 X60.769 Y46.871 E23.65213 ; fill
G1 X50.629 Y36.731 E23.88607 ; fill
G1 X50.629 Y37.152 E23.89293 ; fill
G1 X60.348 Y46.871 E24.11716 ; fill
G1 X59.927 Y46.871 E24.12403 ; fill
G1 X50.629 Y37.573 E24.33854 ; fill
G1 X50.629 Y37.994 E24.34541 ; fill
G1 X59.506 Y46.871 E24.55022 ; fill
G1 X59.086 Y46.871 E24.55708 ; fill
G1 X50.629 Y38.414 E24.75218 ; fill
G1 X50.629 Y38.835 E24.75905 ; fill
G1 X58.665 Y46.871 E24.94444 ; fill
G1 X58.244 Y46.871 E24.95131 ; fill
G1 X50.629 Y39.256 E25.12699 ; fill
G1 X50.629 Y39.677 E25.13385 ; fill
G1 X57.823 Y46.871 E25.29983 ; fill
G1 X57.402 Y46.871 E25.30669 ; fill
G1 X50.629 Y40.098 E25.46296 ; fill
G1 X50.629 Y40.519 E25.46982 ; fill
G1 X56.981 Y46.871 E25.61638 ; fill
G1 X56.561 Y46.871 E25.62324 ; fill
G1 X50.629 Y40.939 E25.76009 ; fill
G1 X50.629 Y41.360 E25.76696 ; fill
G1 X56.140 Y46.871 E25.89409 ; fill
G1 X55.719 Y46.871 E25.90096 ; fill
G1 X50.629 Y41.781 E26.01839 ; fill
G1 X50.629 Y42.202 E26.02525 ; fill
G1 X55.298 Y46.871 E26.13297 ; fill
G1 X54.877 Y46.871 E26.13984 ; fill
G1 X50.629 Y42.623 E26.23785 ; fill
G1 X50.629 Y43.044 E26.24472 ; fill
G1 X54.456 Y46.871 E26.33302 ; fill
G1 X54.036 Y46.871 E26.33988 ; fill
G1 X50.629 Y43.464 E26.41848 ; fill
G1 X50.629 Y43.885 E26.42534 ; fill
G1 X53.615 Y46.871 E26.49423 ; fill
G1 X53.194 Y46.871 E26.50109 ; fill
G1 X50.629 Y44.306 E26.56027 ; fill
G1 X50.629 Y44.727 E26.56713 ; fill
G1 X52.773 Y46.871 E26.61660 ; fill
G1 X52.352 Y46.871 E26.62347 ; fill
G1 X50.629 Y45.148 E26.66322 ; fill
G1 X50.629 Y45.569 E26.67009 ; fill
G1 X51.931 Y46.871 E26.70014 ; fill
G1 X51.511 Y46.871 E26.70700 ; fill
G1 X50.629 Y45.989 E26.72735 ; fill
G1 X50.629 Y46.410 E26.73421 ; fill
G1 X51.090 Y46.871 E26.74484 ; fill
G1 X50.669 Y46.871 E26.75171 ; fill
G1 X50.629 Y46.831 E26.75263 ; fill
G1 X50.669 Y46.871 F6240.000 E26.59761 ; 3600
G1 X51.090 Y46.871 F6240.000 E25.44436 ; 3600
G1 X50.629 Y46.410 F6240.000 E23.65840 ; 3600
G1 X50.629 Y45.989 F6240.000 E22.50514 ; 3600
G1 X51.511 Y46.871 F6240.000 E19.08822 ; 3600
G1 X51.931 Y46.871 F6240.000 E17.93497 ; 3600
G1 X51.755 Y46.695 F6240.000 E17.25263 ; 3600
G1 F3600.000 E16.75263 ; retract for tool change
G92 E0 ; reset extrusion distance
T1 ; change extruder
G92 E0 ; reset extrusion distance - PrusaCircuitConverterScript


END FDM G CODE
M400
M42 P6 S0
G91
G1 Z5 F6000
G90
SEPARATE HERE

G1 Z0.140; restore Z Travel Height before continuing print
; G92 - no reset extruder distance
;G1 X15.410 Y39.360 F7800.000 ; move to first perimeter point
G1 X15.410 Y39.360 F7800.000 ; move to first 	; move to first (last) fill point
M400
M42 P6 S255 ; Pressure on
G4 P1 ; dwell after retraction compensation
;G1 E10.00000 F3600.000 ; compensate retraction
G1 X12.690 Y39.360    F3600  ; perimeter; replaced feedrate - PrusaCircuitConverterScript
G1 X12.690 Y38.640   ; perimeter
G1 X15.410 Y38.640   ; perimeter
G1 X15.410 Y39.287   ; perimeter
G1 X14.986 Y39.115 F7800.000 ; move inwards before travel
;G1 X15.247 Y39.000 F7800.000 ; move to first fill point
G1 X15.247 Y39.000 F7800.000 	; move to first (last) fill point
G1 X12.853 Y39.000    F3600  ; fill; replaced feedrate - PrusaCircuitConverterScript
M106 S255 ; enable fan
G4 P1 ; dwell before retracting
M400
M42 P6 S0 ; Pressure off
;commented retraction: G1 F3600.000   ; retract
; G92 - no reset extruder distance
; move to next layer: 1 detected. Resetting Extrusion distance.
G92 E0 ; reset extrusion distance - PrusaCircuitConverterScript
G1 Z0.280 F7800.000 ; move to next layer (1)
;commented retraction: G1 F3600.000   ; retract for tool change
; G92 - no reset extruder distance
T0 ; change extruder
G92 E0 ; reset extrusion distance - PrusaCircuitConverterScript
G92 E0 ; reset extrusion distance
;G1 X62.025 Y41.025 F7800.000 ; move to first perimeter point
G1 X62.025 Y41.025 F7800.000 ; move to first 	; move to first (last) fill point
G1 E10.00000 F3600.000 ; compensate retraction
G1 X57.975 Y41.025 E10.07838 F837.320 ; perimeter
G1 X57.975 Y38.975 E10.11805 ; perimeter
G1 X62.025 Y38.975 E10.19644 ; perimeter
G1 X62.025 Y40.972 E10.23509 ; perimeter
;G1 X61.675 Y40.675 F7800.000 ; move to first perimeter point
G1 X61.675 Y40.675 F7800.000 ; move to first 	; move to first (last) fill point
G1 X58.325 Y40.675 E10.29993 F600.000 ; perimeter
G1 X58.325 Y39.325 E10.32605 ; perimeter
G1 X61.675 Y39.325 E10.39089 ; perimeter
G1 X61.675 Y40.623 E10.41600 ; perimeter
G1 X61.675 Y41.025 F7800.000 ; move inwards before travel
;G1 X69.475 Y46.975 F7800.000 ; move to first perimeter point
G1 X69.475 Y46.975 F7800.000 ; move to first 	; move to first (last) fill point
G1 X50.525 Y46.975 E10.78274 F837.320 ; perimeter
